tools/download-figma-icons/icons/action/external-link.svg

<svg width="24" height="24" viewBox="0 0 24 24" fill="none" xmlns="http://www.w3.org/2000/svg">
<path d="M20.0625 3H12.9375C12.6889 3 12.4504 3.09877 12.2746 3.27459C12.0988 3.4504 12 3.68886 12 3.9375C12 4.18614 12.0988 4.4246 12.2746 4.60041C12.4504 4.77623 12.6889 4.875 12.9375 4.875H17.7975L14.4225 8.25H3.9225C3.67647 8.25394 3.44185 8.35444 3.26926 8.52983C3.09668 8.70522 2.99997 8.94144 3 9.1875V20.0625C3 20.3111 3.09877 20.5496 3.27459 20.7254C3.4504 20.9012 3.68886 21 3.9375 21H14.8125C15.0611 21 15.2996 20.9012 15.4754 20.7254C15.6512 20.5496 15.75 20.3111 15.75 20.0625V9.5625L19.125 6.1875V11.0475C19.125 11.2961 19.2238 11.5346 19.3996 11.7104C19.5754 11.8862 19.8139 11.985 20.0625 11.985C20.3111 11.985 20.5496 11.8862 20.7254 11.7104C20.9012 11.5346 21 11.2961 21 11.0475V3.9375C21 3.68886 20.9012 3.4504 20.7254 3.27459C20.5496 3.09877 20.3111 3 20.0625 3ZM13.875 19.125H4.875V10.125H12.5475L8.5275 14.1525C8.44042 14.2389 8.37131 14.3418 8.32415 14.455C8.27699 14.5683 8.25271 14.6898 8.25271 14.8125C8.25271 14.9352 8.27699 15.0567 8.32415 15.17C8.37131 15.2832 8.44042 15.3861 8.5275 15.4725C8.61343 15.5605 8.71608 15.6304 8.82942 15.6782C8.94277 15.7259 9.06451 15.7505 9.1875 15.7505C9.31049 15.7505 9.43223 15.7259 9.54558 15.6782C9.65892 15.6304 9.76157 15.5605 9.8475 15.4725L13.875 11.4525V19.125Z" fill="black"/>
</svg>

<svg width="24" height="24" viewBox="0 0 24 24" fill="none" xmlns="http://www.w3.org/2000/svg"><path d="M20.063 3h-7.125a.937.937 0 0 0 0 1.875h4.86L14.422 8.25h-10.5A.938.938 0 0 0 3 9.188v10.874a.937.937 0 0 0 .938.938h10.874a.938.938 0 0 0 .938-.938v-10.5l3.375-3.374v4.86a.938.938 0 0 0 1.875 0v-7.11A.938.938 0 0 0 20.062 3Zm-6.188 16.125h-9v-9h7.672l-4.02 4.027a.93.93 0 0 0 0 1.32.924.924 0 0 0 1.32 0l4.028-4.02v7.673Z" fill="currentColor"/></svg>
